X:1
T: Miss Murray of Lintrose
C:
R:Reel
Q: 232
K:A
M:4/4
L:1/8
e2|:c2 cB A2 E2|F4 E2 d2|c2 A2 B2 AG|AB cd e2 ed|
c2 cB A2 E2|F4 E2 d2|c2 A2 GA BG|A4 A2 z2|
A2 e2 e2 de|f2 d2 d2 cd|E2 d2 d2 cd|e2 c2 c2 BA|
E2 c2 F2 d2|c4 B2 d2|c2 A2 GA BG|A4 A4:|
